src/assets/images/footer/social/discord.svg

<svg width="56" height="56" viewBox="0 0 56 56" fill="none" xmlns="http://www.w3.org/2000/svg">
<rect width="56" height="56" rx="28" fill="#9277FF" fill-opacity="0.15"/>
<path d="M24.8538 18.6372C24.8049 18.2818 24.4832 18.029 24.1263 18.0655L23.9173 18.0869C23.9173 18.0869 20.823 18.4248 18.5639 20.2399H18.5349L18.5059 20.2688C17.9991 20.7323 17.777 21.3067 17.4294 22.1467C17.0819 22.9866 16.7102 24.0534 16.3819 25.2361C15.7302 27.6015 15.1992 30.4689 15.1992 33.095V33.317L15.3102 33.5391C16.1261 34.9728 17.5791 35.8852 18.9259 36.5175C20.2727 37.1499 21.4313 37.483 22.2374 37.512C22.5606 37.5298 22.8666 37.3656 23.0306 37.0866L23.0388 37.0727L24.0042 35.3638C25.0276 35.5955 26.2055 35.75 27.562 35.75C28.9184 35.75 30.0963 35.5955 31.1197 35.3638L32.0851 37.0727L32.0933 37.0866C32.2573 37.3656 32.5633 37.5298 32.8865 37.512C33.6878 37.483 34.8512 37.1499 36.198 36.5175C37.5448 35.8852 38.993 34.9728 39.8137 33.5391L39.9247 33.317V33.095C39.9247 30.4689 39.3937 27.6015 38.7372 25.2313C38.4089 24.0486 38.0372 22.9818 37.6896 22.1418C37.3421 21.3019 37.12 20.7323 36.6131 20.264L36.5842 20.235H36.5552C34.296 18.42 31.2017 18.0821 31.2017 18.0821L31.0291 18.0648C30.6618 18.0282 30.3276 18.2791 30.2604 18.642C30.2604 18.642 30.0046 20.2581 29.8453 20.9919C28.846 20.8519 28.0302 20.8229 27.5571 20.8229C27.084 20.8229 26.2682 20.8519 25.269 20.9871C25.1097 20.2533 24.8538 18.6372 24.8538 18.6372ZM23.3912 20.0178C23.4298 20.1433 23.6463 21.2049 23.6801 21.3062C22.7934 21.5279 21.7492 21.8458 20.804 22.3013C20.3641 22.5133 20.2379 23.0615 20.4975 23.4751C20.755 23.8852 21.2946 24.007 21.7321 23.7994C23.933 22.755 26.6524 22.5897 27.5571 22.5897C28.4618 22.5897 31.1775 22.7551 33.381 23.7994C33.8192 24.0071 34.3594 23.885 34.6172 23.4743C34.8768 23.0608 34.7516 22.5126 34.3122 22.2997C33.3665 21.8416 32.3214 21.5243 31.4341 21.3062C31.4679 21.2049 31.6845 20.1433 31.7231 20.0178C32.5486 20.1819 34.1174 20.5633 35.4208 21.5915C35.416 21.5963 35.7539 22.1032 36.0532 22.8321C36.3621 23.5804 36.7097 24.5748 37.0186 25.6996C37.6172 27.8525 38.0855 30.4786 38.1241 32.7909C37.569 33.6405 36.5359 34.4032 35.4498 34.9149C34.4988 35.359 33.7457 35.5231 33.2968 35.6052L32.8575 34.8618C33.1182 34.7652 33.3789 34.659 33.6009 34.5577C34.1779 34.303 34.6431 34.0406 34.9872 33.823C35.3938 33.5659 35.4384 33.023 35.1215 32.6612C34.8009 32.2951 34.2277 32.2494 33.8066 32.4933C33.5642 32.6337 33.2578 32.7937 32.8816 32.9598C31.7231 33.4715 29.9563 33.9784 27.5571 33.9784C25.158 33.9784 23.3912 33.4667 22.2326 32.9598C21.8572 32.794 21.5512 32.6343 21.3091 32.4941C20.8872 32.2498 20.3129 32.2957 19.9917 32.6624C19.675 33.024 19.7187 33.5662 20.1246 33.8235C20.469 34.0417 20.935 34.3045 21.5133 34.5577C21.7354 34.659 21.9961 34.7652 22.2567 34.8618L21.8175 35.6052C21.3685 35.5231 20.6155 35.359 19.6645 34.9149C18.5735 34.4032 17.5453 33.6405 16.9901 32.7909C17.0288 30.4786 17.497 27.8574 18.0956 25.6996C18.4046 24.5748 18.7521 23.5804 19.0611 22.8321C19.3652 22.1032 19.7031 21.5963 19.6934 21.5915C20.9968 20.5633 22.5657 20.1868 23.3912 20.0178ZM24.4676 26.0326C23.787 26.0326 23.1836 26.4236 22.8119 26.916C22.445 27.4084 22.2616 28.0167 22.2616 28.6828C22.2616 29.349 22.445 29.9572 22.8119 30.4496C23.1788 30.942 23.7822 31.333 24.4676 31.333C25.1531 31.333 25.7517 30.942 26.1234 30.4496C26.4903 29.9572 26.6737 29.349 26.6737 28.6828C26.6737 28.0167 26.4903 27.4084 26.1234 26.916C25.7517 26.4236 25.1483 26.0326 24.4676 26.0326ZM30.6466 26.0326C29.9659 26.0326 29.3625 26.4236 28.9908 26.916C28.624 27.4084 28.4405 28.0167 28.4405 28.6828C28.4405 29.349 28.624 29.9572 28.9908 30.4496C29.3577 30.942 29.9611 31.333 30.6466 31.333C31.3321 31.333 31.9307 30.942 32.3024 30.4496C32.6692 29.9572 32.8527 29.349 32.8527 28.6828C32.8527 28.0167 32.6692 27.4084 32.3024 26.916C31.9307 26.4236 31.3272 26.0326 30.6466 26.0326ZM24.4676 27.7994C24.5159 27.7994 24.5787 27.8187 24.6897 27.9636C24.8007 28.1132 24.9118 28.3691 24.9118 28.6828C24.9118 28.9918 24.8007 29.2524 24.6897 29.4021C24.5787 29.5517 24.5159 29.5662 24.4676 29.5662C24.4194 29.5662 24.3566 29.5469 24.2456 29.4021C24.1346 29.2524 24.0235 28.9966 24.0235 28.6828C24.0235 28.3739 24.1346 28.1132 24.2456 27.9636C24.3566 27.8139 24.4194 27.7994 24.4676 27.7994ZM30.6466 27.7994C30.6949 27.7994 30.7576 27.8187 30.8687 27.9636C30.9797 28.1132 31.0907 28.3691 31.0907 28.6828C31.0907 28.9918 30.9797 29.2524 30.8687 29.4021C30.7576 29.5517 30.6949 29.5662 30.6466 29.5662C30.5983 29.5662 30.5356 29.5469 30.4245 29.4021C30.3135 29.2524 30.2025 28.9966 30.2025 28.6828C30.2025 28.3739 30.3135 28.1132 30.4245 27.9636C30.5356 27.8139 30.5983 27.7994 30.6466 27.7994Z" fill="#9277FF"/>
</svg>

<svg width="56" height="56" fill="none" xmlns="http://www.w3.org/2000/svg"><rect width="56" height="56" rx="28" fill="#9277FF" fill-opacity=".15"/><path d="M24.854 18.637a.666.666 0 00-.728-.572l-.209.022s-3.094.338-5.353 2.153h-.03l-.028.029c-.507.463-.729 1.038-1.077 1.878a27.51 27.51 0 00-1.047 3.09c-.652 2.365-1.183 5.232-1.183 7.858v.222l.111.222c.816 1.434 2.27 2.346 3.616 2.978 1.347.633 2.505.966 3.311.995a.865.865 0 00.794-.425l.008-.014.965-1.71c1.024.233 2.201.387 3.558.387 1.356 0 2.534-.154 3.558-.386l.965 1.709.008.014c.164.279.47.443.793.425.802-.029 1.965-.362 3.312-.995 1.347-.632 2.795-1.544 3.616-2.978l.11-.222v-.222c0-2.626-.53-5.493-1.187-7.864a27.52 27.52 0 00-1.047-3.09c-.348-.84-.57-1.409-1.077-1.877l-.029-.029h-.029c-2.259-1.815-5.353-2.153-5.353-2.153l-.173-.017a.71.71 0 00-.769.577s-.255 1.616-.415 2.35c-.999-.14-1.815-.17-2.288-.17-.473 0-1.289.03-2.288.165-.16-.734-.415-2.35-.415-2.35zm-1.463 1.38c.039.126.255 1.188.29 1.29-.888.22-1.932.539-2.877.994-.44.212-.566.76-.306 1.174.257.41.797.532 1.234.324 2.201-1.044 4.92-1.21 5.825-1.21.905 0 3.62.166 5.824 1.21.438.208.978.086 1.236-.325.26-.413.135-.961-.305-1.174-.945-.458-1.99-.776-2.878-.994.034-.101.25-1.163.29-1.288.825.164 2.393.545 3.697 1.573-.005.005.333.512.632 1.241.31.748.657 1.743.966 2.868.598 2.152 1.067 4.779 1.105 7.09-.555.85-1.588 1.613-2.674 2.125a8.601 8.601 0 01-2.153.69l-.44-.743c.261-.097.522-.203.744-.304a10.65 10.65 0 001.386-.735c.407-.257.451-.8.134-1.162-.32-.366-.893-.412-1.314-.168-.243.14-.55.3-.925.467-1.159.511-2.926 1.018-5.325 1.018s-4.166-.511-5.324-1.018a9.516 9.516 0 01-.924-.466c-.422-.244-.996-.198-1.317.168-.317.362-.273.904.133 1.162.344.218.81.48 1.388.734.222.101.483.207.744.304l-.44.743a8.6 8.6 0 01-2.152-.69c-1.091-.512-2.12-1.274-2.675-2.124.039-2.312.507-4.934 1.106-7.091.309-1.125.656-2.12.965-2.868.304-.729.642-1.236.632-1.24 1.304-1.029 2.873-1.405 3.698-1.574zm1.077 6.016c-.681 0-1.284.39-1.656.883-.367.492-.55 1.1-.55 1.767 0 .666.183 1.274.55 1.767.367.492.97.883 1.656.883.685 0 1.284-.391 1.655-.883.367-.493.55-1.101.55-1.767 0-.666-.183-1.275-.55-1.767-.371-.492-.975-.883-1.655-.883zm6.179 0c-.681 0-1.284.39-1.656.883-.367.492-.55 1.1-.55 1.767 0 .666.183 1.274.55 1.767.367.492.97.883 1.656.883.685 0 1.284-.391 1.655-.883.367-.493.55-1.101.55-1.767 0-.666-.183-1.275-.55-1.767-.371-.492-.975-.883-1.655-.883zm-6.18 1.766c.049 0 .112.02.223.165.11.15.222.405.222.719 0 .309-.111.57-.222.72-.111.149-.174.163-.222.163-.049 0-.111-.02-.222-.164a1.234 1.234 0 01-.223-.72c0-.308.112-.569.223-.718.11-.15.173-.165.222-.165zm6.18 0c.048 0 .11.02.222.165.11.15.222.405.222.719 0 .309-.111.57-.222.72-.111.149-.174.163-.222.163-.049 0-.111-.02-.223-.164a1.234 1.234 0 01-.221-.72c0-.308.11-.569.221-.718.112-.15.174-.165.223-.165z" fill="#9277FF"/></svg>
